q42-logo-pride.svg

<?xml version="1.0" encoding="UTF-8"?>
<svg version="1.1" viewBox="0 0 334 500" xmlns="http://www.w3.org/2000/svg" xmlns:xlink="http://www.w3.org/1999/xlink">
    <defs>
        <path id="b" d="m166.6 500c48.2-154.3 106.4-181 150.3-267.1 54.3-106.4-34.4-232.9-150.3-232.9s-204.5 126.5-150.2 232.9c43.8 86.1 102 112.8 150.2 267.1z"/>
    </defs>
    <mask id="a" fill="white">
        <use xlink:href="#b"/>
    </mask>
    <rect x="-221" width="809" height="500" fill="#750787" mask="url(#a)"/>
    <rect x="-221" width="809" height="417" fill="#004DFF" mask="url(#a)"/>
    <rect x="-221" width="809" height="333" fill="#008026" mask="url(#a)"/>
    <rect x="-221" width="809" height="250" fill="#FFED00" mask="url(#a)"/>
    <rect x="-221" width="809" height="167" fill="#FF8C00" mask="url(#a)"/>
    <rect x="-221" width="809" height="83" fill="#E40303" mask="url(#a)"/>
    <path d="m131.5 243l-22.7 33.9h22.7v-33.9zm-41.5 34.8l41.4-57.9h18.8v56.9h11.3v16.4h-11.3v16.6h-18.7v-16.6h-41.5v-15.4z" fill="#fff" fill-rule="nonzero"/>
    <path d="m175 251.8s-0.1-2-0.1-4.2c0.2-16.2 12-30.2 33-30.2 20.2 0 32.6 13.4 32.6 29.1 0 11.7-6.4 21.2-17.6 28l-17.4 10.6c-3.5 2.2-6.4 4.7-7.8 8.2h43.3v16.6h-66.8c0.1-15.9 5.1-28.8 21.3-38.6l14.9-8.9c7.7-4.6 10.7-9.3 10.7-15.6 0-6.6-4.6-12.4-13.7-12.4-9.6 0-14.3 6.5-14.3 15 0 1.7 0.1 2.4 0.1 2.4h-18.2z" fill="#fff"/>
    <path d="m256.4 175.7l-19.4-14.9c6.9-12 10.9-25.8 10.9-40.7 0-44.9-36.4-81.3-81.3-81.3s-81.3 36.4-81.3 81.3 36.4 81.3 81.3 81.3c20.6 0 39.3-7.6 53.6-20.2l19.8 15.2 16.4-20.7zm-89.8-5.4c-27.7 0-50.1-22.4-50.1-50.1s22.4-50.1 50.1-50.1 50.1 22.4 50.1 50.1c0 7.7-1.7 14.9-4.8 21.4l-21.1-16.2-16.4 20.7 20.3 15.6c-8 5.4-17.7 8.6-28.1 8.6z" fill="#fff" fill-rule="nonzero"/>
</svg>

<?xml version="1.0" encoding="UTF-8"?>
<svg width="334px" height="500px" viewBox="0 0 334 500" version="1.1" xmlns="http://www.w3.org/2000/svg" xmlns:xlink="http://www.w3.org/1999/xlink">
    <!-- Generator: Sketch 52.5 (67469) - http://www.bohemiancoding.com/sketch -->
    <title>Group</title>
    <desc>Created with Sketch.</desc>
    <defs>
        <path d="M166.6,500 C214.8,345.7 273,319 316.9,232.9 C371.2,126.5 282.5,0 166.6,0 C50.7,0 -37.9,126.5 16.4,232.9 C60.2,319 118.4,345.7 166.6,500 Z" id="path-1"></path>
    </defs>
    <g id="Page-1" stroke="none" stroke-width="1" fill="none" fill-rule="evenodd">
        <g id="Group" transform="translate(-221.000000, 0.000000)">
            <g id="Gay_flag"></g>
            <g id="q42-logo" transform="translate(221.000000, 0.000000)">
                <g id="Rectangle-+-Rectangle-+-Rectangle-+-Rectangle-+-Rectangle-+-Rectangle-Mask">
                    <mask id="mask-2" fill="white">
                        <use xlink:href="#path-1"></use>
                    </mask>
                    <use id="Mask" fill="#FFFFFF" xlink:href="#path-1"></use>
                    <rect id="Rectangle" fill="#750787" mask="url(#mask-2)" x="-221" y="0" width="809" height="500"></rect>
                    <rect id="Rectangle" fill="#004DFF" mask="url(#mask-2)" x="-221" y="0" width="809" height="417"></rect>
                    <rect id="Rectangle" fill="#008026" mask="url(#mask-2)" x="-221" y="0" width="809" height="333"></rect>
                    <rect id="Rectangle" fill="#FFED00" mask="url(#mask-2)" x="-221" y="0" width="809" height="250"></rect>
                    <rect id="Rectangle" fill="#FF8C00" mask="url(#mask-2)" x="-221" y="0" width="809" height="167"></rect>
                    <rect id="Rectangle" fill="#E40303" mask="url(#mask-2)" x="-221" y="0" width="809" height="83"></rect>
                </g>
                <path d="M131.5,243 L108.8,276.9 L131.5,276.9 L131.5,243 Z M90,277.8 L131.4,219.9 L150.2,219.9 L150.2,276.8 L161.5,276.8 L161.5,293.2 L150.2,293.2 L150.2,309.8 L131.5,309.8 L131.5,293.2 L90,293.2 L90,277.8 Z" id="Shape" fill="#FFFFFF" fill-rule="nonzero"></path>
                <path d="M175,251.8 C175,251.8 174.9,249.8 174.9,247.6 C175.1,231.4 186.9,217.4 207.9,217.4 C228.1,217.4 240.5,230.8 240.5,246.5 C240.5,258.2 234.1,267.7 222.9,274.5 L205.5,285.1 C202,287.3 199.1,289.8 197.7,293.3 L241,293.3 L241,309.9 L174.2,309.9 C174.3,294 179.3,281.1 195.5,271.3 L210.4,262.4 C218.1,257.8 221.1,253.1 221.1,246.8 C221.1,240.2 216.5,234.4 207.4,234.4 C197.8,234.4 193.1,240.9 193.1,249.4 C193.1,251.1 193.2,251.8 193.2,251.8 L175,251.8 Z" id="Path" fill="#FFFFFF"></path>
                <path d="M256.4,175.7 L237,160.8 C243.9,148.8 247.9,135 247.9,120.1 C247.9,75.2 211.5,38.8 166.6,38.8 C121.7,38.8 85.3,75.2 85.3,120.1 C85.3,165 121.7,201.4 166.6,201.4 C187.2,201.4 205.9,193.8 220.2,181.2 L240,196.4 L256.4,175.7 Z M166.6,170.3 C138.9,170.3 116.5,147.9 116.5,120.2 C116.5,92.5 138.9,70.1 166.6,70.1 C194.3,70.1 216.7,92.5 216.7,120.2 C216.7,127.9 215,135.1 211.9,141.6 L190.8,125.4 L174.4,146.1 L194.7,161.7 C186.7,167.1 177,170.3 166.6,170.3 Z" id="Shape" fill="#FFFFFF" fill-rule="nonzero"></path>
            </g>
        </g>
    </g>
</svg>
